24x24/apps/lovers-in-a-dangerous-spacetime.svg

<svg xmlns="http://www.w3.org/2000/svg" width="24" height="24" version="1">
 <path style="opacity:0.2" d="m 6.6767189,2.5022863 c -3.628642,0.107079 -6.91013038,3.8482071 -5.2197453,8.9695767 0.7770833,2.197234 2.2363913,3.872379 5.6103717,6.439346 C 9.2800587,19.594673 11.99998,22.5 11.99998,22.5 c 0,0 2.719921,-2.905327 4.932635,-4.588791 3.37398,-2.566967 4.833288,-4.242112 5.610372,-6.439346 C 25.118811,3.6678711 16.150978,-0.93091305 11.99998,5.6496948 10.573074,3.3876108 8.5774362,2.4461973 6.6767189,2.5022863 Z"/>
 <path style="fill:#e32b90" d="m 6.6767189,2.0022845 c -3.628642,0.107079 -6.91013038,3.8482071 -5.2197453,8.9695765 0.7770833,2.197234 2.2363913,3.872379 5.6103717,6.439347 2.2127134,1.683463 4.9326347,4.58879 4.9326347,4.58879 0,0 2.719921,-2.905327 4.932635,-4.58879 3.37398,-2.566968 4.833288,-4.242113 5.610372,-6.439347 C 25.118811,3.1678693 16.150978,-1.4309149 11.99998,5.149693 10.573074,2.887609 8.5774362,1.9461955 6.6767189,2.0022845 Z"/>
 <circle style="opacity:0.6;fill:#f4f4f7" cx="9" cy="7.5" r="3"/>
 <path style="opacity:0.2" d="m 13.492191,5.9931046 a 0.5000518,0.5000518 0 0 0 -0.492189,0.5068378 v 5.0000176 2.000008 a 3.0000108,3.0000108 0 0 0 0.814456,2.049811 L 12.5,17.499982 h 1.500005 l 0.834964,-1.239262 a 3.0000108,3.0000108 0 0 0 1.165044,0.239258 3.0000108,3.0000108 0 0 0 1.166019,-0.236328 l 0.833988,1.236332 h 1.500005 l -1.314458,-1.948249 a 3.0000108,3.0000108 0 0 0 0.680667,-1.175786 l 1.857429,-0.928714 a 0.5000518,0.5000518 0 0 0 0.02735,-0.879886 l -1.75099,-1.015628 V 11.49996 H 14.000005 V 6.4999424 A 0.5000518,0.5000518 0 0 0 13.492191,5.9931046 Z m 5.507832,6.7148684 0.447268,0.259766 -0.447268,0.223633 z"/>
 <path style="fill:#fdd557" d="m 13.000002,10.999959 v 2.000007 a 3.0000108,3.0000108 0 0 0 3.000011,3.000011 3.0000108,3.0000108 0 0 0 3.00001,-3.000011 v -2.000007 z"/>
 <path style="opacity:0.6;fill:#f4f4f7" d="m 16.000013,4.999937 a 0.5000018,0.5000018 0 0 0 -0.500002,0.5000018 0.5000018,0.5000018 0 0 0 0.250001,0.4316421 v 0.581057 a 3.0000108,3.0000108 0 0 0 -2.75001,2.9873153 v 1.5000058 h 6.000021 V 9.4999532 A 3.0000108,3.0000108 0 0 0 16.250014,6.5126379 V 5.9325574 a 0.5000018,0.5000018 0 0 0 0.25,-0.4326186 0.5000018,0.5000018 0 0 0 -0.500001,-0.5000018 z"/>
 <path style="fill:#fdd557" d="m 18.941429,11.017537 -0.501955,0.865237 1.007817,0.584963 -1.170903,0.584963 0.447267,0.894535 2.000008,-1.000004 a 0.5000518,0.5000518 0 0 0 0.02735,-0.879886 z"/>
 <path style="fill:#2b385f" d="M 14.000005,10.999959 V 9.5001197 c 0,-1.1045735 0.895434,-2.0000072 2.000008,-2.0000072 1.104573,0 2.000007,0.8954337 2.000007,2.0000072 v 1.4998393 z"/>
 <ellipse style="fill:#51c7d0" cx="15.702" cy="9.504" rx=".351" ry=".499"/>
 <ellipse style="fill:#51c7d0" cx="17.239" cy="9.504" rx=".351" ry=".499"/>
 <path style="fill:#fdd557" d="m 14.100006,14.628004 h 1.500005 L 14.000005,16.99998 H 12.5 Z"/>
 <path style="fill:#fdd557" d="m 17.900019,14.628004 h -1.500005 l 1.600006,2.371976 h 1.500005 z"/>
 <path style="opacity:0.2" d="M 9.9609375,7.3984375 A 0.5000518,0.5000518 0 0 0 9.8417969,8.375 L 11.96875,9.0839844 10.199219,10.5 H 7.3496094 3.5 a 0.5000518,0.5000518 0 1 0 0,1 H 6.2148438 C 5.6314596,12.248743 5.1015579,13.008898 5,13.859375 v 1.238281 C 5,15.522015 4.9873717,15.52789 5.5175781,15.5 h 0.71875 L 4,17.5 h 1.5 l 2.2363281,-2 H 10 v 2 h 1 v -2 h 0.283203 c 0.734958,0 0.767274,0.03132 0.714844,-0.626953 V 12.808594 L 11.472656,10.761719 13.3125,9.2910156 A 0.5000518,0.5000518 0 0 0 13.158203,8.4257812 l -3,-1 a 0.5000518,0.5000518 0 0 0 -0.146484,-0.027344 0.5000518,0.5000518 0 0 0 -0.050781,3e-7 z"/>
 <path style="fill:#6dba7c" d="m 6.9918577,9.9995152 h 4.4144373 l 0.592182,2.3097338 v 2.063863 c 0.05243,0.658271 0.01994,0.627815 -0.715018,0.627815 H 5.5166559 c -0.5302064,0.02789 -0.5166786,0.02177 -0.5166786,-0.402589 V 13.359597 C 5.1467626,12.130372 6.1784615,11.08799 6.9918577,9.9995152 Z"/>
 <path style="fill:#6dba7c" d="m 3.4999694,9.9999463 a 0.5000518,0.5000518 0 1 0 0,1.0000037 h 3.8496234 a 0.5000518,0.5000518 0 1 0 0,-1.0000037 z"/>
 <path style="fill:#6dba7c" d="M 6.6499808,14.628004 H 8.1499862 L 5.4999766,16.99998 H 3.9999712 Z"/>
 <rect style="fill:#6dba7c" width="1" height="2.5" x="10" y="14.5"/>
 <path style="fill:#f4f4f7" d="M 10.999996,10 V 7.787639 c 0,-0.9665015 -0.783504,-1.7500063 -1.7500059,-1.7500063 -0.966502,0 -1.7500063,0.7835048 -1.7500063,1.7500063 V 10 Z"/>
 <path style="fill:#6dba7c" d="m 10.011712,6.8982715 a 0.5000518,0.5000518 0 0 0 -0.1699227,0.976566 l 2.1279367,0.7089871 -1.782232,1.4257864 a 0.5002459,0.5002459 0 1 0 0.625002,0.781251 L 13.312505,8.7908563 A 0.5000518,0.5000518 0 0 0 13.158207,7.9256187 L 10.158196,6.9256151 a 0.5000518,0.5000518 0 0 0 -0.146484,-0.027345 z"/>
 <ellipse style="fill:#17191e" cx="-9.51" cy="8.453" rx=".307" ry=".437" transform="scale(-1,1)"/>
 <ellipse style="fill:#17191e" cx="-8.166" cy="8.453" rx=".307" ry=".437" transform="scale(-1,1)"/>
 <path style="fill:#fdd557" d="m 13.492191,5.9929988 a 0.5000518,0.5000518 0 0 0 -0.492189,0.5068378 v 5.0000194 a 0.5000518,0.5000518 0 1 0 1.000003,0 V 6.4998366 A 0.5000518,0.5000518 0 0 0 13.492191,5.9929988 Z"/>
 <path style="opacity:0.2;fill:#f4f4f7" d="M 6.6767389,2.0018793 C 3.6603592,2.0908909 0.89373209,4.6959322 1.0136324,8.5126451 1.1394429,4.9706048 3.7940602,2.5869473 6.6767389,2.5018811 8.5774562,2.4457922 10.573094,3.3872694 12,5.6493533 15.589817,-0.04160992 22.776231,2.6313899 22.989298,8.5048326 23.179772,2.2873286 15.690142,-0.70065772 12,5.1493515 10.573094,2.8872676 8.5774562,1.9457904 6.6767389,2.0018793 Z"/>
 <path style="fill:#ed9433" d="m 14.000005,11.999962 h 4.000015 v 1.000004 c 0,1.116418 -0.883589,2.000007 -2.000007,2.000007 -1.116418,0 -2.000008,-0.883589 -2.000008,-2.000007 z"/>
 <path style="fill:#018c58" d="m 7.6144701,11 h 3.0155059 l 0.391693,1.412111 V 14 H 6.0766692 V 13.384765 C 6.1724532,12.686842 6.8635194,11.900114 7.6144701,11 Z"/>
</svg>

<svg xmlns="http://www.w3.org/2000/svg" width="24" height="24" version="1"><path style="opacity:.2" d="M6.677 2.502c-3.629.107-6.91 3.848-5.22 8.97.777 2.197 2.236 3.872 5.61 6.44C9.28 19.594 12 22.5 12 22.5s2.72-2.905 4.933-4.589c3.374-2.567 4.833-4.242 5.61-6.44C25.119 3.669 16.151-.93 12 5.65c-1.427-2.262-3.423-3.204-5.323-3.148z"/><path style="fill:#e32b90" d="M6.677 2.002c-3.629.107-6.91 3.848-5.22 8.97.777 2.197 2.236 3.872 5.61 6.44C9.28 19.094 12 22 12 22s2.72-2.905 4.933-4.589c3.374-2.567 4.833-4.242 5.61-6.44C25.119 3.169 16.151-1.43 12 5.15c-1.427-2.262-3.423-3.204-5.323-3.148z"/><circle style="opacity:.6;fill:#f4f4f7" cx="9" cy="7.5" r="3"/><path style="opacity:.2" d="M13.492 5.993A.5.5 0 0 0 13 6.5v7a3 3 0 0 0 .814 2.05L12.5 17.5H14l.835-1.24A3 3 0 0 0 16 16.5a3 3 0 0 0 1.166-.236L18 17.5h1.5l-1.314-1.948a3 3 0 0 0 .68-1.176l1.858-.929a.5.5 0 0 0 .027-.88L19 11.552V11.5h-5v-5a.5.5 0 0 0-.508-.507zM19 12.708l.447.26-.447.223z"/><path style="fill:#fdd557" d="M13 11v2a3 3 0 0 0 3 3 3 3 0 0 0 3-3v-2z"/><path style="opacity:.6;fill:#f4f4f7" d="M16 5a.5.5 0 0 0-.5.5.5.5 0 0 0 .25.432v.58A3 3 0 0 0 13 9.5V11h6V9.5a3 3 0 0 0-2.75-2.987v-.58a.5.5 0 0 0 .25-.433.5.5 0 0 0-.5-.5z"/><path style="fill:#fdd557" d="m18.941 11.018-.502.865 1.008.585-1.17.585.447.894 2-1a.5.5 0 0 0 .027-.88z"/><path style="fill:#2b385f" d="M14 11V9.5a2 2 0 0 1 4 0V11z"/><ellipse style="fill:#51c7d0" cx="15.702" cy="9.504" rx=".351" ry=".499"/><ellipse style="fill:#51c7d0" cx="17.239" cy="9.504" rx=".351" ry=".499"/><path style="fill:#fdd557" d="M14.1 14.628h1.5L14 17h-1.5zM17.9 14.628h-1.5L18 17h1.5z"/><path style="opacity:.2" d="M9.96 7.398a.5.5 0 0 0-.118.977l2.127.709-1.77 1.416H3.5a.5.5 0 1 0 0 1h2.715c-.584.749-1.113 1.509-1.215 2.36v1.238c0 .424-.013.43.518.402h.718L4 17.5h1.5l2.236-2H10v2h1v-2h.283c.735 0 .767.031.715-.627v-2.064l-.525-2.047 1.84-1.471a.5.5 0 0 0-.155-.865l-3-1a.5.5 0 0 0-.146-.028.5.5 0 0 0-.051 0z"/><path style="fill:#6dba7c" d="M6.992 10h4.414l.592 2.31v2.063c.053.658.02.628-.715.628H5.517c-.53.028-.517.022-.517-.403V13.36c.147-1.23 1.178-2.272 1.992-3.36z"/><path style="fill:#6dba7c" d="M3.5 10a.5.5 0 1 0 0 1h3.85a.5.5 0 1 0 0-1zM6.65 14.628h1.5L5.5 17H4zM10 14.5h1V17h-1z"/><path style="fill:#f4f4f7" d="M11 10V7.788a1.75 1.75 0 1 0-3.5 0V10z"/><path style="fill:#6dba7c" d="M10.012 6.898a.5.5 0 0 0-.17.977l2.128.709-1.783 1.426a.5.5 0 1 0 .625.78l2.5-2a.5.5 0 0 0-.154-.864l-3-1a.5.5 0 0 0-.146-.028z"/><ellipse style="fill:#17191e" cx="-9.51" cy="8.453" rx=".307" ry=".437" transform="scale(-1 1)"/><ellipse style="fill:#17191e" cx="-8.166" cy="8.453" rx=".307" ry=".437" transform="scale(-1 1)"/><path style="fill:#fdd557" d="M13.492 5.993A.5.5 0 0 0 13 6.5v5a.5.5 0 1 0 1 0v-5a.5.5 0 0 0-.508-.507z"/><path style="opacity:.2;fill:#f4f4f7" d="M6.677 2.002C3.66 2.09.894 4.696 1.014 8.512c.125-3.541 2.78-5.925 5.663-6.01 1.9-.056 3.896.885 5.323 3.147 3.59-5.69 10.776-3.018 10.99 2.856.19-6.218-7.3-9.206-10.99-3.356-1.427-2.262-3.423-3.203-5.323-3.147z"/><path style="fill:#ed9433" d="M14 12h4v1c0 1.116-.884 2-2 2s-2-.884-2-2z"/><path style="fill:#018c58" d="M7.614 11h3.016l.392 1.412V14H6.077v-.615c.095-.698.787-1.485 1.537-2.385z"/></svg>
